X:16
T:Fyr Anders (Stjuls/Snoa)
Z:2000 Brian Wilson 
M:4/4
L:1/8
K:A
|: A,2 CE A,2 CE| DFAF DFAF | E2 GB E2 GB | Bc/B/ AB c2 A2
|  A,2 CE A,2 CE| DFAF DFAF | E2 GB E2 GB | Bc/B/ AG A4 :|
|: A2 ce ag fe | dc Bc d2 d2 | fe dB G2 G2 | fe cA E4
|  A2 ce ag fe | dc Bc d2 ^d2 | e3 e ge gb | b2 ag a4 :|
